public/imagenes/euler.svg

<?xml version="1.0" encoding="UTF-8" standalone="no" ?>
<!DOCTYPE svg PUBLIC "-//W3C//DTD SVG 1.1//EN" "http://www.w3.org/Graphics/SVG/1.1/DTD/svg11.dtd">
<svg xmlns="http://www.w3.org/2000/svg" xmlns:xlink="http://www.w3.org/1999/xlink" version="1.1" width="1080" height="1080" viewBox="0 0 1080 1080" xml:space="preserve">
<desc>Created with Fabric.js 5.2.4</desc>
<defs>
</defs>
<g transform="matrix(1 0 0 1 540 540)" id="05afd38f-f8cd-4233-8d76-aa23586a63ba"  >
<rect style="stroke: none; stroke-width: 1; stroke-dasharray: none; stroke-linecap: butt; stroke-dashoffset: 0; stroke-linejoin: miter; stroke-miterlimit: 4; fill: rgb(255,255,255); fill-rule: nonzero; opacity: 1; visibility: hidden;" vector-effect="non-scaling-stroke"  x="-540" y="-540" rx="0" ry="0" width="1080" height="1080" />
</g>
<g transform="matrix(1 0 0 1 540 540)" id="dd8f63e4-3faa-4b9c-8e44-11a5648b0f18"  >
</g>
<g transform="matrix(1 0 0 1 540 540)"  >
<g style="" vector-effect="non-scaling-stroke"   >
		<g transform="matrix(33.33 0 0 33.33 184.03 -165.63)"  >
<path style="stroke: none; stroke-width: 1; stroke-dasharray: none; stroke-linecap: butt; stroke-dashoffset: 0; stroke-linejoin: miter; stroke-miterlimit: 4; fill: rgb(255,255,255); fill-rule: nonzero; opacity: 1;" vector-effect="non-scaling-stroke"  transform=" translate(-17.5, -6.54)" d="M 15.6622 4.83 C 15.4443 4.43945 14.9352 4.32515 14.5713 4.5851 L 14.186 4.8603 C 13.8489 5.10105 13.3805 5.02299 13.1398 4.68593 C 12.899 4.34887 12.9771 3.88045 13.3141 3.6397 L 13.6994 3.3645 C 14.7912 2.58467 16.3185 2.92754 16.9721 4.09921 L 17.6411 5.29833 L 19.7197 3.21967 C 20.0126 2.92677 20.4875 2.92677 20.7804 3.21967 C 21.0733 3.51256 21.0733 3.98743 20.7804 4.28033 L 18.4007 6.66 L 19.2856 8.24622 C 19.5126 8.65299 20.0515 8.7567 20.4132 8.46322 L 20.7775 8.16761 C 21.0991 7.90661 21.5715 7.95578 21.8324 8.27743 C 22.0934 8.59907 22.0443 9.0714 21.7226 9.33239 L 21.3583 9.628 C 20.2733 10.5085 18.6565 10.1973 17.9757 8.97701 L 17.2982 7.76255 L 15.2804 9.78033 C 14.9875 10.0732 14.5126 10.0732 14.2197 9.78033 C 13.9268 9.48743 13.9268 9.01256 14.2197 8.71967 L 16.5385 6.40087 L 15.6622 4.83 Z" stroke-linecap="round" />
</g>
		<g transform="matrix(33.33 0 0 33.33 -149.18 67.8)"  >
<path style="stroke: none; stroke-width: 1; stroke-dasharray: none; stroke-linecap: butt; stroke-dashoffset: 0; stroke-linejoin: miter; stroke-miterlimit: 4; fill: rgb(255,255,255); fill-rule: nonzero; opacity: 1;" vector-effect="non-scaling-stroke"  transform=" translate(-7.5, -13.54)" d="M 8.34835 13.8922 C 6.89604 14.1756 5.25531 14.2384 3.67207 14.2484 C 3.32888 15.4975 3.43407 16.407 3.73871 17.0356 C 4.07937 17.7386 4.73159 18.2194 5.611 18.4387 C 7.40941 18.8874 9.9779 18.1758 11.6859 16.227 C 11.9589 15.9155 12.4328 15.8843 12.7443 16.1573 C 13.0558 16.4304 13.087 16.9042 12.814 17.2157 C 10.772 19.5456 7.64317 20.4917 5.24793 19.8941 C 4.03052 19.5904 2.96183 18.8721 2.38886 17.6898 C 1.81935 16.5145 1.80262 15.0113 2.41127 13.2545 C 3.23467 10.8778 4.48257 9.40236 5.72896 8.48846 C 6.96797 7.57996 8.16564 7.25537 8.84942 7.11529 C 10.4045 6.79672 11.7563 7.24025 12.5001 8.21665 C 13.2539 9.20604 13.2405 10.5633 12.4051 11.7043 C 11.4811 12.9663 9.95734 13.5781 8.34835 13.8922 Z M 9.15047 8.58477 C 8.58425 8.70077 7.61692 8.96415 6.61593 9.69812 C 5.79267 10.3018 4.91895 11.2439 4.23027 12.7421 C 5.5922 12.7203 6.90768 12.6451 8.061 12.42 C 9.5385 12.1316 10.6048 11.624 11.1948 10.8182 C 11.6835 10.1507 11.6129 9.52728 11.3069 9.12564 C 10.9911 8.71102 10.2809 8.35319 9.15047 8.58477 Z" stroke-linecap="round" />
</g>
</g>
</g>
</svg>

<svg xmlns="http://www.w3.org/2000/svg" xml:space="preserve" width="1080" height="1080"><path d="M15.662 4.83a.75.75 0 0 0-1.09-.245l-.386.275a.75.75 0 1 1-.872-1.22l.385-.276a2.25 2.25 0 0 1 3.273.735l.67 1.2 2.078-2.08a.75.75 0 0 1 1.06 1.061L18.4 6.66l.886 1.586a.75.75 0 0 0 1.127.217l.364-.295a.75.75 0 1 1 .946 1.164l-.365.296a2.25 2.25 0 0 1-3.382-.651l-.678-1.214L15.28 9.78a.75.75 0 0 1-1.06-1.06l2.318-2.32z" style="stroke:none;stroke-width:1;stroke-dasharray:none;stroke-linecap:butt;stroke-dashoffset:0;stroke-linejoin:miter;stroke-miterlimit:4;fill:#fff;fill-rule:nonzero;opacity:1" transform="translate(140.755 156.392)scale(33.33)" vector-effect="non-scaling-stroke"/><path d="M8.348 13.892c-1.452.284-3.093.346-4.676.356-.343 1.25-.238 2.159.067 2.788.34.703.993 1.183 1.872 1.403 1.798.448 4.367-.263 6.075-2.212a.75.75 0 0 1 1.128.989c-2.042 2.33-5.17 3.276-7.566 2.678-1.217-.304-2.286-1.022-2.86-2.204-.569-1.175-.585-2.679.023-4.436.824-2.376 2.072-3.852 3.318-4.766a7.9 7.9 0 0 1 3.12-1.373c1.556-.318 2.907.125 3.651 1.102.754.989.74 2.346-.095 3.487-.924 1.262-2.448 1.874-4.057 2.188m.802-5.307a6.4 6.4 0 0 0-2.534 1.113c-.823.604-1.697 1.546-2.386 3.044 1.362-.022 2.678-.097 3.831-.322 1.478-.288 2.544-.796 3.134-1.602.489-.667.418-1.29.112-1.692-.316-.415-1.026-.773-2.157-.541" style="stroke:none;stroke-width:1;stroke-dasharray:none;stroke-linecap:butt;stroke-dashoffset:0;stroke-linejoin:miter;stroke-miterlimit:4;fill:#fff;fill-rule:nonzero;opacity:1" transform="translate(140.845 156.512)scale(33.33)" vector-effect="non-scaling-stroke"/></svg>
